src/assets/te-figma-logo.svg

<svg xmlns="http://www.w3.org/2000/svg" width="24" height="24" fill="none" viewBox="0 0 24 24"><path fill="#E01E5A" d="M5.04761 15.1238C5.04761 16.5143 3.92382 17.6382 2.53332 17.6382C1.14282 17.6382 0.019043 16.5143 0.019043 15.1238C0.019043 13.7334 1.14282 12.6096 2.53342 12.6096H5.04751V15.1239L5.04761 15.1238ZM6.30479 15.1238C6.30479 13.7334 7.42857 12.6096 8.81907 12.6096C10.2096 12.6096 11.3334 13.7334 11.3334 15.1239V21.4096C11.3334 22.8001 10.2096 23.9239 8.81898 23.9239C7.42867 23.9239 6.30479 22.8001 6.30479 21.4096V15.1239V15.1238Z"/><path fill="#36C5F0" d="M8.81906 5.02856C7.42856 5.02856 6.30469 3.90478 6.30469 2.51428C6.30469 1.12378 7.42866 0 8.81906 0C10.2095 0 11.3333 1.12378 11.3333 2.51428V5.02866H8.81897L8.81906 5.02856ZM8.81906 6.30478C10.2096 6.30478 11.3333 7.42856 11.3333 8.81906C11.3333 10.2096 10.2096 11.3333 8.81897 11.3333H2.51437C1.12378 11.3333 0 10.2096 0 8.81897C0 7.42866 1.12378 6.30478 2.51428 6.30478H8.81897H8.81906Z"/><path fill="#2EB67D" d="M18.8951 8.81906C18.8951 7.42856 20.0189 6.30469 21.4093 6.30469C22.7998 6.30469 23.9237 7.42856 23.9237 8.81906C23.9237 10.2096 22.7998 11.3333 21.4093 11.3333H18.8951V8.81897V8.81906ZM17.6379 8.81906C17.6379 10.2096 16.5141 11.3333 15.1236 11.3333C13.7332 11.3333 12.6094 10.2096 12.6094 8.81897V2.51437C12.6094 1.12378 13.7332 0 15.1236 0C16.514 0 17.6378 1.12378 17.6378 2.51428V8.81897L17.6379 8.81906Z"/><path fill="#ECB22E" d="M15.1236 18.8954C16.5141 18.8954 17.6379 20.0192 17.6379 21.4096C17.6379 22.8001 16.5141 23.9239 15.1236 23.9239C13.7332 23.9239 12.6094 22.8001 12.6094 21.4096V18.8954H15.1237H15.1236ZM15.1236 17.6382C13.7332 17.6382 12.6094 16.5143 12.6094 15.1238C12.6094 13.7334 13.7332 12.6096 15.1237 12.6096H21.4283C22.8188 12.6096 23.9427 13.7334 23.9427 15.1239C23.9427 16.5143 22.8188 17.6382 21.4283 17.6382H15.1237H15.1236Z"/></svg>

<svg xmlns="http://www.w3.org/2000/svg" width="24" height="24" fill="none"><path fill="#E01E5A" d="M5.048 15.124a2.512 2.512 0 0 1-2.515 2.514A2.512 2.512 0 0 1 .02 15.124a2.512 2.512 0 0 1 2.514-2.514h2.515v2.514Zm1.257 0a2.512 2.512 0 0 1 2.514-2.514 2.512 2.512 0 0 1 2.514 2.514v6.286a2.512 2.512 0 0 1-2.514 2.514 2.512 2.512 0 0 1-2.514-2.514v-6.286Z"/><path fill="#36C5F0" d="M8.82 5.029a2.512 2.512 0 0 1-2.515-2.515A2.512 2.512 0 0 1 8.819 0a2.512 2.512 0 0 1 2.514 2.514V5.03H8.82Zm0 1.276a2.512 2.512 0 0 1 2.513 2.514 2.512 2.512 0 0 1-2.514 2.514H2.514A2.512 2.512 0 0 1 0 8.82a2.512 2.512 0 0 1 2.514-2.514H8.82Z"/><path fill="#2EB67D" d="M18.895 8.82a2.512 2.512 0 0 1 2.514-2.515 2.512 2.512 0 0 1 2.515 2.514 2.512 2.512 0 0 1-2.515 2.514h-2.514V8.82Zm-1.257 0a2.512 2.512 0 0 1-2.514 2.513 2.512 2.512 0 0 1-2.515-2.514V2.514A2.512 2.512 0 0 1 15.124 0a2.512 2.512 0 0 1 2.514 2.514V8.82Z"/><path fill="#ECB22E" d="M15.124 18.895a2.512 2.512 0 0 1 2.514 2.515 2.512 2.512 0 0 1-2.514 2.514 2.512 2.512 0 0 1-2.515-2.514v-2.515h2.515Zm0-1.257a2.512 2.512 0 0 1-2.515-2.514 2.512 2.512 0 0 1 2.515-2.514h6.304a2.512 2.512 0 0 1 2.515 2.514 2.512 2.512 0 0 1-2.515 2.514h-6.304Z"/></svg>
